dhis-2/dhis-support/dhis-support-system/src/main/resources/SVGs/female_sex_worker_negative.svg

<?xml version="1.0" encoding="UTF-8" standalone="no"?>
<!-- Created with Inkscape (http://www.inkscape.org/) -->
<svg id="svg8" xmlns:rdf="http://www.w3.org/1999/02/22-rdf-syntax-ns#" xmlns="http://www.w3.org/2000/svg" xmlns:osb="http://www.openswatchbook.org/uri/2009/osb" height="48" width="48" version="1.1" xmlns:cc="http://creativecommons.org/ns#" viewBox="0 0 12.7 12.7" xmlns:dc="http://purl.org/dc/elements/1.1/">
 <title id="title4753">UIO-icon</title>
 <metadata id="metadata5">
  <rdf:RDF>
   <cc:Work rdf:about="">
    <dc:format>image/svg+xml</dc:format>
    <dc:type rdf:resource="http://purl.org/dc/dcmitype/StillImage"/>
    <dc:title>UIO-icon</dc:title>
    <dc:creator>
     <cc:Agent>
      <dc:title>Joaquín Urbano</dc:title>
     </cc:Agent>
    </dc:creator>
    <dc:rights>
     <cc:Agent>
      <dc:title>GPL</dc:title>
     </cc:Agent>
    </dc:rights>
   </cc:Work>
  </rdf:RDF>
 </metadata>
 <g id="layer1" fill="#333" transform="translate(0,-284.3)">
  <path id="rect3248" d="m0 0v48h48v-48zm12.051 4.0664a3.395 3.395 0 0 1 3.394 3.3945 3.395 3.395 0 0 1 -3.394 3.3941 3.395 3.395 0 0 1 -3.3948 -3.3941 3.395 3.395 0 0 1 3.3948 -3.3945zm22.699 0.0996a3.395 3.395 0 0 1 3.395 3.3965 3.395 3.395 0 0 1 -3.395 3.3945 3.395 3.395 0 0 1 -3.395 -3.3945 3.395 3.395 0 0 1 3.395 -3.3965zm-22.992 8.189c1.9516 0.00025814 3.4934 1.6382 3.4844 3.5898l-0.013672 4.2656c1e-8 0.056753-0.001403 0.11664-0.001953 0.17383l2.586 1.683c0.27575 0.17949 0.48233 0.41818 0.64453 0.67969l1.5312-3.375 2.166 1.8125c-0.90173 0.67201-1.8172 1.3199-2.5781 2.2168l2.916-1.5645 0.62305 2.7539c-1.6065-0.017394-3.2074-0.088046-4.8906 0.7207-0.43792 0.48727-1.0488 0.74839-1.6777 0.72266-0.30639-0.021022-0.58203-0.11499-0.85547-0.21289-0.080829-0.039556-0.15898-0.082507-0.23633-0.13281l-0.396-0.26c-0.17495 1.2676-0.17458 3.4787 0.53125 5.0117l1.113 4.917c0.50017 1.4327-0.11257 3.8966-0.59961 6.9492-0.35426 1.4975-0.82416 1.6992-1.9746 1.6992-1.425-0.208-1.478-1.645-1.27-3.069l0.59961-4.0938-1.6113-5.9824-0.82422 6.7734c-0.041404 0.1832-0.10228 0.35572-0.17773 0.51953-0.043897 0.19068-0.10754 0.38044-0.19727 0.56445l-1.9039 3.902c-0.6319 1.294-2.1805 1.827-3.4746 1.195s-0.5907-1.606 0.041-2.9l2.0567-3.854c0.46878-2.1075 0.12292-4.9279 0.625-7.0273-0.014848-1.6562 1.076-3.5432 0.6875-11.439l-0.0156-2.588c-0.011439-1.9517 1.1421-3.6521 3.0938-3.6523zm22.992 0.118c1.2245-0.004638 2.4216 0.096944 3.6699 0.66211-0.041172 0.033982-0.081674 0.07419-0.12695 0.14453-0.23941 0.37198-0.44215 0.87612-0.54688 1.3457-0.083157 0.3729-0.094597 0.50992-0.10547 1.2988l-0.011719 0.73828-0.056641 0.011719c-0.69017 0.14138-1.0531 0.28149-1.4961 0.57812-0.47185 0.31598-0.86825 0.79526-0.9707 1.1758-0.009628 0.035686-0.025203 0.072129-0.037109 0.082031-0.011907 0.009902-0.094111 0.02533-0.18164 0.035156-0.17104 0.019124-0.45871-0.00098933-0.5-0.035156-0.011906-0.009857-0.031383-0.046277-0.041016-0.082031-0.10246-0.38051-0.49495-0.85981-0.9668-1.1758-0.44296-0.29663-0.80787-0.43671-1.498-0.57812l-0.056641-0.011719-0.009766-0.73828c-0.012-0.789-0.024-0.926-0.107-1.299-0.105-0.47-0.311-0.974-0.551-1.346-0.04-0.063-0.076-0.097-0.113-0.131 1.261-0.579 2.469-0.68 3.705-0.675zm4.1738 0.91797c0.32761 0.18104 0.65859 0.38467 0.99609 0.64258 1.2553 0.88969 2.566 6.5631 2.877 13.156-0.11459 1.3544-2.0093 1.2668-2.0469 0.078125-0.31984-5.134-1.2822-9.3086-2.457-10.641l0.007813-0.75391c0.00635-0.69441 0.010575-0.7912 0.041016-0.94922 0.086365-0.44835 0.24703-0.87698 0.46094-1.2324 0.087876-0.14603 0.11633-0.22951 0.12109-0.30078zm-8.3984 0.027344c0.009768 0.056875 0.038555 0.12136 0.091797 0.21094 0.17977 0.30246 0.3433 0.68373 0.42578 0.99023 0.09574 0.35582 0.10377 0.42607 0.11133 1.2539l0.003906 0.77344-0.027344 0.091797c-1.141 1.425-2.069 5.509-2.382 10.53-0.03756 1.1887-1.9323 1.2763-2.0469-0.078125 0.31095-6.5932 1.6216-12.267 2.877-13.156 0.32022-0.2447 0.63407-0.44003 0.94531-0.61523zm-18.748 0.36914c-1.1806 0.00000566-2.1328 0.95028-2.1328 2.1309v3.5391c0.045664 1.0676-0.055806 1.7984 1.1387 2.6465l1.0859 0.70703c0.06763 0.054176 0.1383 0.10571 0.21289 0.1543l2.9844 1.9434 0.2793 0.18164c1.0034 0.65313 2.2303 0.53397 2.752-0.26758 0.52171-0.80146 0.13426-1.9719-0.86914-2.625l-1.085-0.705c-0.068275-0.054603-0.13756-0.10919-0.21289-0.1582l-0.713-0.463-1.3301-0.86719 0.017578-0.54688v-3.5391c-2e-8 -1.1806-0.94834-2.1309-2.1289-2.1309zm22.453 5.3633 0.16406 0.027344c0.2087 0.033071 0.45732 0.033071 0.66602 0l0.16406-0.027344 0.125 0.12305c0.098468 0.095758 0.20796 0.17929 0.32617 0.25195 0.35465 0.218 0.78783 0.33082 1.2461 0.31445 0.25157-0.008942 0.39731-0.035382 0.61914-0.11133 0.15856-0.054282 0.30067-0.13724 0.43359-0.23047 0.001516-0.001066 0.004342-0.00088201 0.005859-0.001953-0.60574 1.6461 0.15386 3.629 1.1289 5.668-3.1602 2.1266-6.0576 1.7742-8.8027-0.003906 0.49407-1.8406 1.7996-3.3271 1.2109-5.6387 0.24028 0.1589 0.52128 0.27371 0.83203 0.3125 0.12593 0.015723 0.45855 0.009711 0.59961-0.011719 0.35688-0.0542 0.67357-0.208 0.94141-0.40234 0.002445-0.001753 0.005271-0.002255 0.007813-0.003906 0.002439-0.001776 0.003428-0.004059 0.005859-0.005859 0.064533-0.047509 0.1431-0.082464 0.19922-0.13672zm-14.475 1.0293-0.11328 0.13672 0.18164 0.1543c-0.075214 0.11038-0.10752 0.22101-0.097656 0.33398 0.00986 0.11297 0.0621 0.21034 0.1582 0.29102 0.055729 0.046783 0.1128 0.077498 0.16797 0.09375 0.055651 0.015716 0.1111 0.02021 0.16797 0.013672 0.05678-0.007589 0.11671-0.023468 0.17773-0.048828 0.060458-0.025829 0.12778-0.059152 0.20312-0.10156 0.075348-0.042395 0.13815-0.06616 0.1875-0.068359 0.049255-0.003247 0.095948 0.015543 0.14258 0.054688 0.044924 0.037712 0.069885 0.081373 0.072266 0.13281 0.001813 0.050963-0.018538 0.1023-0.060547 0.15234-0.050601 0.060265-0.10884 0.091411-0.17188 0.09375-0.063127 0.001293-0.12764-0.027178-0.19531-0.083984l-0.20703 0.24805c0.11658 0.09786 0.23735 0.14317 0.36133 0.13867 0.12389-0.005541 0.24119-0.059943 0.35156-0.16602l0.167 0.141 0.113-0.134-0.168-0.143c0.077986-0.11484 0.11124-0.22896 0.10156-0.33984-0.009677-0.11088-0.063484-0.20596-0.16016-0.28711-0.051748-0.043442-0.10226-0.073289-0.1543-0.089844-0.052604-0.017034-0.10667-0.024369-0.16211-0.019531-0.056008 0.004362-0.11514 0.019233-0.17578 0.042969-0.06121 0.023263-0.13417 0.058192-0.21875 0.10352-0.084103 0.044761-0.1501 0.067251-0.19727 0.070312-0.047163 0.003061-0.091547-0.012545-0.13477-0.048828-0.04663-0.039145-0.073448-0.083309-0.078125-0.13086-0.005245-0.048026 0.011637-0.093993 0.050781-0.14062 0.039622-0.04718 0.088974-0.07109 0.14648-0.070312 0.057419-0.00026835 0.12121 0.028655 0.18945 0.085938l0.20703-0.24609c-0.11089-0.093086-0.22664-0.14121-0.34375-0.14258-0.11768-0.001852-0.22551 0.042142-0.32422 0.13086zm2.084 2.1777-0.17383 0.035156 0.046875 0.23438c-0.12765 0.03933-0.22237 0.10478-0.28516 0.19922-0.062785 0.094435-0.083356 0.20316-0.058594 0.32617 0.014359 0.071327 0.039299 0.1306 0.072266 0.17773 0.033695 0.046991 0.074521 0.0868 0.12305 0.11719 0.049108 0.029495 0.10446 0.052057 0.16797 0.070312 0.063362 0.017533 0.13926 0.034957 0.22461 0.048828 0.085345 0.013871 0.14757 0.035389 0.1875 0.064453 0.040515 0.028195 0.06611 0.071173 0.078125 0.13086 0.011575 0.057502 0.002891 0.10676-0.027344 0.14844-0.030381 0.040955-0.078526 0.069143-0.14258 0.082031-0.077154 0.015568-0.14069 0.00429-0.19141-0.033203-0.050138-0.038377-0.084126-0.10088-0.10156-0.1875l-0.31445 0.0625c0.030038 0.14921 0.09367 0.26014 0.19336 0.33398 0.10027 0.072986 0.22647 0.10387 0.37891 0.089844l0.044922 0.21484 0.17188-0.033203-0.042969-0.21875c0.1326-0.041084 0.22939-0.10653 0.29102-0.19922 0.061622-0.092685 0.079596-0.20243 0.054688-0.32617-0.013334-0.066236-0.034109-0.12062-0.064453-0.16602-0.03049-0.046122-0.068892-0.084431-0.11523-0.11523-0.046489-0.03154-0.10186-0.056896-0.16406-0.076172-0.062346-0.020016-0.14-0.039293-0.23438-0.056641-0.093649-0.017503-0.16045-0.039383-0.19922-0.066406-0.038766-0.027035-0.063083-0.069683-0.074219-0.125-0.012015-0.059682-0.004529-0.10836 0.021484-0.14844 0.025867-0.0408 0.067268-0.068059 0.12695-0.080078 0.060413-0.012151 0.11375 0.00059914 0.1582 0.037109 0.045038 0.035618 0.076167 0.096249 0.09375 0.18359l0.31641-0.0625c-0.028572-0.14193-0.089025-0.25007-0.17969-0.32422-0.090809-0.07488-0.20149-0.10931-0.33398-0.10156zm8.3359 3.3828c2.0833 0.52579 3.2701 1.6258 4.2773 2.8438l0.025391 14.328c0.01795 1.4113-3.4555 1.6742-3.4941 0.082031 0.5869-16.448-1.3661-13.686-0.80859-17.254zm9.0469 0c0.55745 3.5684-1.3974 0.80545-0.81055 17.254-0.038614 1.5922-3.5101 1.3293-3.4922-0.082031l0.023438-14.328c1.0072-1.218 2.196-2.318 4.2793-2.8438z" fill-rule="evenodd" transform="matrix(.26458 0 0 .26458 0 284.3)"/>
 </g>
</svg>

<svg width="48" height="48" viewBox="0 0 48 48" fill="none" xmlns="http://www.w3.org/2000/svg">
<path fill-rule="evenodd" clip-rule="evenodd" d="M0 0V47.9994H47.9994V0H0ZM12.0508 4.06635C12.951 4.06661 13.8142 4.42434 14.4506 5.06089C15.0871 5.69743 15.4447 6.56067 15.4448 7.46081C15.4446 8.36088 15.0869 9.22401 14.4505 9.86047C13.814 10.4969 12.9509 10.8546 12.0508 10.8549C11.1506 10.8548 10.2873 10.4972 9.6507 9.86075C9.01409 9.22427 8.65633 8.36101 8.65609 7.46081C8.65622 6.56053 9.01394 5.69717 9.65056 5.0606C10.2872 4.42404 11.1506 4.0664 12.0508 4.06635ZM34.7496 4.16595C35.1955 4.16595 35.6371 4.25381 36.0491 4.42452C36.4611 4.59522 36.8354 4.84543 37.1507 5.16084C37.466 5.47625 37.716 5.85068 37.8865 6.26275C38.0571 6.67482 38.1447 7.11645 38.1445 7.56241C38.1444 8.46272 37.7866 9.32611 37.15 9.96268C36.5133 10.5992 35.6499 10.9569 34.7496 10.9569C33.8493 10.9569 32.9858 10.5992 32.3491 9.96268C31.7125 9.32611 31.3547 8.46272 31.3546 7.56241C31.3544 7.11645 31.4421 6.67482 31.6126 6.26275C31.7831 5.85068 32.0332 5.47625 32.3484 5.16084C32.6637 4.84543 33.038 4.59522 33.45 4.42452C33.862 4.25381 34.3036 4.16595 34.7496 4.16595ZM11.7579 12.3548C13.7094 12.3551 15.2512 13.993 15.2422 15.9446L15.2285 20.2101C15.2285 20.2669 15.2271 20.3268 15.2266 20.384L17.8126 22.067C18.0883 22.2464 18.2949 22.4851 18.4571 22.7466L19.9883 19.3717L22.1542 21.1842C21.2525 21.8562 20.337 22.504 19.5762 23.4009L22.4921 21.8364L23.1152 24.5903C21.5087 24.5729 19.9078 24.5023 18.2246 25.311C17.7867 25.7983 17.1758 26.0594 16.5469 26.0337C16.2406 26.0126 15.9649 25.9187 15.6915 25.8208C15.6107 25.7812 15.5325 25.7383 15.4552 25.688L15.0592 25.428C14.8842 26.6955 14.8846 28.9066 15.5904 30.4396L16.7034 35.3565C17.2036 36.7892 16.5908 39.2531 16.1038 42.3056C15.7495 43.8031 15.2796 44.0048 14.1292 44.0048C12.7042 43.7968 12.6512 42.3598 12.8592 40.9359L13.4588 36.8421L11.8476 30.8598L11.0233 37.6331C10.9819 37.8163 10.9211 37.9888 10.8456 38.1526C10.8017 38.3433 10.7381 38.5331 10.6484 38.7171L8.74448 42.619C8.11258 43.913 6.564 44.446 5.26992 43.814C3.97584 43.182 4.67923 42.208 5.31092 40.914L7.36759 37.0601C7.83637 34.9526 7.49051 32.1323 7.99258 30.0329C7.97774 28.3767 9.06857 26.4897 8.68008 18.594L8.66448 16.0061C8.65304 14.0544 9.80656 12.354 11.7582 12.3538L11.7579 12.3548ZM34.7496 12.4728C35.974 12.4682 37.1711 12.5698 38.4194 13.1349C38.3782 13.1689 38.3377 13.2091 38.2925 13.2795C38.0531 13.6514 37.8503 14.1556 37.7456 14.6252C37.6624 14.9981 37.651 15.1351 37.6401 15.9239L37.6284 16.6622L37.5718 16.6739C36.8816 16.8153 36.5187 16.9554 36.0757 17.252C35.6038 17.568 35.2074 18.0473 35.105 18.4278C35.0954 18.4635 35.0798 18.5 35.0679 18.5099C35.056 18.5198 34.9738 18.5352 34.8863 18.545C34.7152 18.5641 34.4275 18.544 34.3863 18.5099C34.3744 18.5 34.3549 18.4636 34.3452 18.4278C34.2428 18.0473 33.8503 17.568 33.3785 17.252C32.9355 16.9554 32.5706 16.8153 31.8805 16.6739L31.8238 16.6622L31.8141 15.9239C31.8021 15.135 31.7901 14.998 31.7071 14.625C31.6021 14.155 31.3961 13.651 31.1561 13.279C31.1161 13.216 31.0801 13.182 31.0431 13.148C32.3041 12.569 33.512 12.468 34.748 12.473L34.7496 12.4728ZM38.9233 13.3908C39.2509 13.5718 39.5819 13.7755 39.9194 14.0334C41.1747 14.9231 42.4854 20.5964 42.7964 27.1892C42.6818 28.5436 40.7871 28.456 40.7495 27.2673C40.4296 22.1334 39.4673 17.9588 38.2925 16.6265L38.3003 15.8726C38.3067 15.1782 38.3109 15.0814 38.3413 14.9234C38.4277 14.475 38.5884 14.0464 38.8023 13.691C38.8901 13.5449 38.9186 13.4615 38.9234 13.3902L38.9233 13.3908ZM30.525 13.4181C30.5348 13.475 30.5636 13.5395 30.6168 13.6291C30.7966 13.9315 30.9601 14.3128 31.0426 14.6193C31.1383 14.9751 31.1464 15.0454 31.1539 15.8732L31.1578 16.6466L31.1305 16.7384C29.9895 18.1634 29.0615 22.2473 28.7485 27.2683C28.711 28.457 26.8162 28.5446 26.7016 27.1902C27.0126 20.597 28.3232 14.9233 29.5786 14.0343C29.8988 13.7896 30.2127 13.5943 30.5239 13.4191L30.525 13.4181ZM11.7773 13.7873C10.5967 13.7873 9.64448 14.7375 9.64448 15.9182V19.4572C9.69014 20.5248 9.58867 21.2556 10.7832 22.1037L11.8691 22.8107C11.9367 22.8649 12.0073 22.9164 12.0819 22.965L15.0663 24.9084L15.3456 25.09C16.349 25.7431 17.5759 25.624 18.0976 24.8224C18.6193 24.021 18.2318 22.8506 17.2284 22.1975L16.1434 21.4925C16.0752 21.4379 16.0059 21.3833 15.9306 21.3343L15.2176 20.8713L13.8875 20.0041L13.9051 19.4572V15.9182C13.9051 14.7376 12.9567 13.7873 11.7762 13.7873H11.7773ZM34.23 19.1505L34.394 19.1779C34.6027 19.2109 34.8513 19.2109 35.06 19.1779L35.2241 19.1505L35.3491 19.2736C35.4476 19.3693 35.5571 19.4529 35.6753 19.5255C36.0299 19.7435 36.4631 19.8563 36.9213 19.84C37.1729 19.831 37.3187 19.8046 37.5405 19.7286C37.699 19.6743 37.8411 19.5914 37.9741 19.4982C37.9756 19.4971 37.9784 19.4973 37.9799 19.4962C37.3742 21.1423 38.1338 23.1252 39.1088 25.1641C35.9486 27.2907 33.0513 26.9383 30.3062 25.1602C30.8003 23.3197 32.1058 21.8332 31.5171 19.5216C31.7574 19.6805 32.0384 19.7953 32.3491 19.8341C32.4751 19.8498 32.8077 19.8438 32.9487 19.8224C33.3056 19.7682 33.6223 19.6144 33.8901 19.42C33.8926 19.4183 33.8954 19.4178 33.8979 19.4161C33.9004 19.4144 33.9014 19.4121 33.9038 19.4103C33.9683 19.3628 34.0469 19.3278 34.103 19.2736L34.23 19.1505ZM19.7552 20.1798L19.6419 20.3165L19.8235 20.4708C19.7483 20.5812 19.716 20.6918 19.7259 20.8048C19.7357 20.9178 19.788 21.0151 19.8841 21.0958C19.9398 21.1426 19.9969 21.1733 20.052 21.1896C20.1077 21.2053 20.1631 21.2098 20.22 21.2032C20.2768 21.1956 20.3367 21.1798 20.3977 21.1544C20.4582 21.1286 20.5255 21.0953 20.6008 21.0528C20.6762 21.0104 20.739 20.9867 20.7883 20.9845C20.8376 20.9812 20.8843 21 20.9309 21.0392C20.9758 21.0769 21.0008 21.1205 21.0032 21.172C21.005 21.2229 20.9846 21.2743 20.9426 21.3243C20.892 21.3846 20.8338 21.4157 20.7708 21.4181C20.7076 21.4194 20.6431 21.3909 20.5754 21.3341L20.3684 21.5821C20.485 21.68 20.6058 21.7253 20.7297 21.7208C20.8536 21.7153 20.9709 21.6609 21.0813 21.5548L21.2483 21.6958L21.3613 21.5618L21.1933 21.4188C21.2713 21.3039 21.3045 21.1898 21.2949 21.0789C21.2852 20.9681 21.2314 20.873 21.1347 20.7918C21.083 20.7484 21.0324 20.7186 20.9804 20.702C20.9278 20.685 20.8737 20.6776 20.8183 20.6825C20.7623 20.6868 20.7032 20.7017 20.6425 20.7254C20.5813 20.7487 20.5083 20.7836 20.4238 20.829C20.3397 20.8737 20.2737 20.8962 20.2265 20.8993C20.1793 20.9023 20.135 20.8867 20.0917 20.8504C20.0451 20.8113 20.0183 20.7671 20.0136 20.7196C20.0084 20.6716 20.0252 20.6256 20.0644 20.579C20.104 20.5318 20.1534 20.5079 20.2109 20.5087C20.2683 20.5084 20.3321 20.5373 20.4003 20.5946L20.6073 20.3485C20.4965 20.2554 20.3807 20.2073 20.2636 20.2059C20.1459 20.2041 20.0381 20.2481 19.9394 20.3368L19.7552 20.1798ZM21.8391 22.3575L21.6653 22.3926L21.7122 22.627C21.5845 22.6663 21.4898 22.7318 21.427 22.8262C21.3642 22.9207 21.3437 23.0294 21.3684 23.1524C21.3828 23.2237 21.4077 23.283 21.4407 23.3301C21.4744 23.3771 21.5152 23.4169 21.5637 23.4473C21.6128 23.4768 21.6682 23.4994 21.7317 23.5176C21.7951 23.5352 21.871 23.5526 21.9563 23.5664C22.0417 23.5803 22.1039 23.6018 22.1438 23.6309C22.1843 23.6591 22.2099 23.7021 22.2219 23.7618C22.2335 23.8193 22.2248 23.8685 22.1946 23.9102C22.1642 23.9511 22.1161 23.9793 22.052 23.9922C21.9749 24.0078 21.9113 23.9965 21.8606 23.959C21.8105 23.9206 21.7765 23.8581 21.759 23.7715L21.4446 23.834C21.4746 23.9832 21.5383 24.0942 21.638 24.168C21.7382 24.241 21.8644 24.2719 22.0169 24.2578L22.0618 24.4727L22.2337 24.4395L22.1907 24.2207C22.3233 24.1796 22.4201 24.1142 22.4817 24.0215C22.5433 23.9288 22.5613 23.8191 22.5364 23.6953C22.5231 23.6291 22.5023 23.5747 22.4719 23.5293C22.4415 23.4832 22.4031 23.4449 22.3567 23.4141C22.3102 23.3826 22.2549 23.3572 22.1927 23.3379C22.1303 23.3179 22.0527 23.2986 21.9583 23.2813C21.8646 23.2638 21.7978 23.2419 21.7591 23.2149C21.7203 23.1878 21.696 23.1452 21.6848 23.0899C21.6728 23.0302 21.6803 22.9815 21.7063 22.9414C21.7322 22.9006 21.7736 22.8734 21.8333 22.8614C21.8937 22.8492 21.947 22.862 21.9915 22.8985C22.0365 22.9341 22.0676 22.9947 22.0852 23.0821L22.4016 23.0196C22.3731 22.8776 22.3126 22.7695 22.2219 22.6954C22.1311 22.6205 22.0205 22.586 21.888 22.5938L21.8391 22.3575ZM30.1749 25.7402C32.2582 26.266 33.445 27.366 34.4522 28.584L34.4776 42.9118C34.4955 44.3231 31.0221 44.586 30.9835 42.9938C31.5704 26.5461 29.6174 29.308 30.1749 25.7401V25.7402ZM39.2217 25.7402C39.7792 29.3086 37.8243 26.5457 38.4112 42.994C38.3726 44.5862 34.9011 44.3233 34.919 42.912L34.9425 28.5842C35.9496 27.3662 37.1384 26.2662 39.2217 25.7404V25.7402Z" fill="#333333"/>
</svg>
